X: 1806
T: Sultânîyegâh Seyir
C: Rauf Yektâ
O: Turkey
F: http://compmusic.upf.edu/node/140
N: sultaniyegah--seyir--semai--1--rauf_yekta
N: makam= sultaniyegah
N: form= seyir
N: usul= semai = 3/4
M: 3/4
L: 1/16
K: C _B ^c  
Q: 1/4=120
%%MIDI tuningsystem comma53
d8 e4  | f8 e4  | e8 d4  | d4 c8  | d8 e4  | f4 g4 a4  | \
w:   |   |   |   |   |   | 
a2g2 f4 g4  | a8 z4  | a8 =c'4  | 
w:   |   |   | 
=c'8 a4  | b8 g4  | a4 f8  | e4 f4 g4  | a4 f8  | \
w:   |   |   |   |   | 
e8 c4  | d8 z4  | d8 f4  | f8 e4  | e8 d4  | 
w:   |   |   |   |   | 
d4 c4 B4  | A8 B4  | e4 d4 c4  | c4 B4 A4  | \
w:   |   |   |   | 
A8 z4  | A8 G4  | F8 B4  | A8 G4  | F4 E4 D4  | 
w:   |   |   |   |   | 
E4 F4 G4  | A8 F4  | E8 C4  | D8 z4  | |


